svgs/light/file-user.svg

<svg xmlns="http://www.w3.org/2000/svg" viewBox="0 0 384 512"><!--! Font Awesome Pro 6.6.0 by @fontawesome - https://fontawesome.com License - https://fontawesome.com/license (Commercial License) Copyright 2024 Fonticons, Inc. --><path d="M320 480l-16 0 0-16c0-44.2-35.8-80-80-80l-64 0c-44.2 0-80 35.8-80 80l0 16-16 0c-17.7 0-32-14.3-32-32L32 64c0-17.7 14.3-32 32-32l128 0 0 112c0 26.5 21.5 48 48 48l112 0 0 256c0 17.7-14.3 32-32 32zm-48-16l0 16-160 0 0-16c0-26.5 21.5-48 48-48l64 0c26.5 0 48 21.5 48 48zM240 160c-8.8 0-16-7.2-16-16l0-111.5c2.8 .7 5.4 2.1 7.4 4.2L347.3 152.6c2.1 2.1 3.5 4.6 4.2 7.4L240 160zM64 0C28.7 0 0 28.7 0 64L0 448c0 35.3 28.7 64 64 64l256 0c35.3 0 64-28.7 64-64l0-284.1c0-12.7-5.1-24.9-14.1-33.9L254.1 14.1c-9-9-21.2-14.1-33.9-14.1L64 0zM192 256a32 32 0 1 1 0 64 32 32 0 1 1 0-64zm0 96a64 64 0 1 0 0-128 64 64 0 1 0 0 128z"/></svg>

<svg xmlns="http://www.w3.org/2000/svg" viewBox="0 0 384 512"><!--! Font Awesome Pro 6.4.0 by @fontawesome - https://fontawesome.com License - https://fontawesome.com/license (Commercial License) Copyright 2023 Fonticons, Inc. --><path d="M320 480H304V464c0-44.2-35.8-80-80-80H160c-44.2 0-80 35.8-80 80v16H64c-17.7 0-32-14.3-32-32V64c0-17.7 14.3-32 32-32H192V144c0 26.5 21.5 48 48 48H352V448c0 17.7-14.3 32-32 32zm-48-16v16H112V464c0-26.5 21.5-48 48-48h64c26.5 0 48 21.5 48 48zM240 160c-8.8 0-16-7.2-16-16V32.5c2.8 .7 5.4 2.1 7.4 4.2L347.3 152.6c2.1 2.1 3.5 4.6 4.2 7.4H240zM64 0C28.7 0 0 28.7 0 64V448c0 35.3 28.7 64 64 64H320c35.3 0 64-28.7 64-64V163.9c0-12.7-5.1-24.9-14.1-33.9L254.1 14.1c-9-9-21.2-14.1-33.9-14.1H64zM192 256a32 32 0 1 1 0 64 32 32 0 1 1 0-64zm0 96a64 64 0 1 0 0-128 64 64 0 1 0 0 128z"/></svg>
